img/brand/Gap_logo.svg

<svg width="60" height="60" viewBox="0 0 60 60" fill="none" xmlns="http://www.w3.org/2000/svg">
<path d="M29.9994 0H0V30.0006V60H29.9994H60V30.0006V0H29.9994Z" fill="#002A5F"/>
<path d="M43.1087 15.4982H44.3519C45.5277 15.497 46.0737 16.5932 46.0737 17.4222V30.325C46.0749 31.2548 45.5277 32.1168 44.4745 32.1106H43.1087V15.4982ZM44.3597 15.0198H39.4143V15.4982H40.7229V44.5018H39.4143V45.0148H44.9937V44.5018H43.1085V32.7002H44.7341C47.0993 32.7002 48.4455 31.4544 48.4455 29.7798V18.1894C48.4457 16.519 47.2837 15.0172 44.3597 15.0198Z" fill="white"/>
<path d="M18.1844 15.4048C18.1844 15.8832 17.9054 15.8472 17.6818 15.6902C16.8784 15.126 15.8934 14.7202 15.0136 14.7268C13.5794 14.7372 11.5242 15.4316 11.5176 18.4556V40.6896C11.5394 44.5516 13.3978 45.2732 15.2298 45.2926C16.656 45.3062 17.335 44.5532 17.912 44.3018C18.2164 44.169 18.5494 44.4762 18.5494 45.0468H19.1416V30.9016H20.3298V30.426H15.3114V30.9016H16.7672V43.0688C16.7672 44.0554 16.097 44.802 15.2526 44.8036C14.4392 44.8036 13.816 44.031 13.816 43.0688V17.5716C13.8148 16.8784 13.9378 15.2668 15.0096 15.2744C17.0728 15.2898 18.168 21.3234 18.1832 24.4446H18.7754V15.0032H18.186L18.1844 15.4048Z" fill="white"/>
<path d="M27.2947 32.1516L28.7403 19.209L30.2161 32.1516H27.2947ZM30.2765 32.681L31.6209 44.4954H30.2995V45.0082H35.2651V44.4954H33.9567L30.6575 15.0132H28.5445L25.4797 42.8582C25.2993 43.8584 25.2059 44.4746 23.7681 44.4962V45.0084H27.4917V44.4956C26.4379 44.4964 25.9607 43.8226 26.0643 43.1064L27.2349 32.6812H30.2765V32.681Z" fill="white"/>
</svg>

<svg width="60" height="60" viewBox="0 0 60 60" fill="none" xmlns="http://www.w3.org/2000/svg"><path d="M30 0H0v60h60V0H30z" fill="#002A5F"/><path d="M43.109 15.498h1.243c1.176-.001 1.722 1.095 1.722 1.924v12.903c0 .93-.546 1.792-1.6 1.786H43.11V15.498zm1.25-.478h-4.945v.478h1.309v29.004h-1.309v.513h5.58v-.513h-1.886V32.7h1.626c2.365 0 3.712-1.246 3.712-2.92V18.19c0-1.671-1.162-3.173-4.086-3.17zm-26.175.385c0 .478-.279.442-.502.285-.804-.564-1.789-.97-2.668-.963-1.435.01-3.49.705-3.496 3.729V40.69c.021 3.862 1.88 4.583 3.712 4.603 1.426.013 2.105-.74 2.682-.991.304-.133.637.174.637.745h.593V30.902h1.188v-.476h-5.02v.476h1.456v12.167c0 .986-.67 1.733-1.514 1.735-.814 0-1.437-.773-1.437-1.735V17.572c-.001-.694.122-2.305 1.194-2.298 2.063.016 3.158 6.05 3.173 9.17h.592v-9.44h-.589l-.002.4zm9.111 16.747l1.445-12.943 1.476 12.943h-2.921zm2.981.529l1.345 11.814h-1.322v.513h4.966v-.513h-1.308l-3.3-29.482h-2.113L25.48 42.858c-.18 1-.274 1.617-1.712 1.638v.512h3.724v-.512c-1.054 0-1.531-.673-1.428-1.39l1.17-10.425h3.042z" fill="#fff"/></svg>
